X:5680
T:Gan Ainm
R:Reel
S:
H:
N:
D:
Z:Adrian Scahill
M:4/4
L:1/8
K:G
G2dG BGdG|G2dB cAFA|G2dG Bcde|fdcB cAFA|\
G2dG BGdG|G2dB cAFA|GABc dfeg|1 fdcA AGFA:|2 fdcA GABc||\
dgg2 bgaf|dgg2 d2cA|dgg2 bgag|fdcA GABc|\
dgg2 bgaf|dgg2 d2eg|afge (3fed eg|1 fdcA GABc:|2 fdcA AGFA||
